public/icons/video.svg

<svg width="32" height="32" viewBox="0 0 32 32" fill="none" xmlns="http://www.w3.org/2000/svg">
<rect x="0.5" y="0.5" width="31" height="31" rx="7.5" fill="#E8F1FC"/>
<rect x="0.5" y="0.5" width="31" height="31" rx="7.5" stroke="#B6D4F7"/>
<path fill-rule="evenodd" clip-rule="evenodd" d="M18 11.332H11.3333C10.2287 11.332 9.33331 12.2275 9.33331 13.332V18.6654C9.33331 19.7699 10.2287 20.6654 11.3333 20.6654H18C19.1045 20.6654 20 19.7699 20 18.6654V17.9987L21.6 19.1987C22.0395 19.5283 22.6666 19.2147 22.6666 18.6654V13.332C22.6666 12.7827 22.0395 12.4691 21.6 12.7987L20 13.9987V13.332C20 12.2275 19.1045 11.332 18 11.332ZM11.0619 14.4192C11.3826 14.5261 11.6343 14.7778 11.7412 15.0985C11.85 15.4249 12.3117 15.4249 12.4205 15.0985C12.5274 14.7778 12.7791 14.5261 13.0998 14.4192C13.4262 14.3104 13.4262 13.8487 13.0998 13.7399C12.7791 13.633 12.5274 13.3814 12.4205 13.0606C12.3117 12.7342 11.85 12.7342 11.7412 13.0606C11.6343 13.3814 11.3826 13.633 11.0619 13.7399C10.7355 13.8487 10.7355 14.3104 11.0619 14.4192Z" fill="#4490EA"/>
</svg>

<svg xmlns="http://www.w3.org/2000/svg" width="32" height="32" fill="none"><rect width="31" height="31" x=".5" y=".5" fill="#E8F1FC" rx="7.5"/><rect width="31" height="31" x=".5" y=".5" stroke="#B6D4F7" rx="7.5"/><path fill="#4490EA" fill-rule="evenodd" d="M18 11.332h-6.667a2 2 0 0 0-2 2v5.333a2 2 0 0 0 2 2H18a2 2 0 0 0 2-2V18l1.6 1.2a.667.667 0 0 0 1.067-.534v-5.333a.667.667 0 0 0-1.067-.533l-1.6 1.2v-.667a2 2 0 0 0-2-2m-6.938 3.087c.32.107.572.359.68.68.108.326.57.326.678 0 .107-.321.36-.573.68-.68a.358.358 0 0 0 0-.68 1.07 1.07 0 0 1-.68-.678.358.358 0 0 0-.679 0c-.107.32-.358.572-.68.679a.358.358 0 0 0 0 .68" clip-rule="evenodd"/></svg>
